rospo-icon-theme-classic-common/64x64/apps/com.github.mirkobrombin.ppaextender.svg

<svg height="64" viewBox="0 0 64 64" width="64" xmlns="http://www.w3.org/2000/svg"><g transform="translate(0 -988.3622)"><path d="m60 1046.6122v-38.5c0-1.5234-1.2488-2.75-2.8-2.75h-50.4c-1.5512 0-2.8 1.2266-2.8 2.75v38.5c0 1.5236 1.2488 2.75 2.8 2.75h50.4c1.5512 0 2.8-1.2264 2.8-2.75z" opacity=".2"/><path d="m60 1033.6122v-38.5c0-1.5236-1.2488-2.75-2.8-2.75h-50.4c-1.5512 0-2.8 1.2266-2.8 2.75v38.5c0 1.5236 1.2488 2.75 2.8 2.75h50.4c1.5512 0 2.8-1.2264 2.8-2.75z" fill="#86603b"/><path d="m60 1039.6122v-38.5c0-1.5234-1.2488-2.75-2.8-2.75h-50.4c-1.5512 0-2.8 1.2266-2.8 2.75v38.5c0 1.5234 1.2488 2.75 2.8 2.75h50.4c1.5512 0 2.8-1.2264 2.8-2.75z" fill="#c28a52"/><path d="m60 1045.6122v-38.5c0-1.5234-1.2488-2.75-2.8-2.75h-50.4c-1.5512 0-2.8 1.2266-2.8 2.75v38.5c0 1.5236 1.2488 2.75 2.8 2.75h50.4c1.5512 0 2.8-1.2264 2.8-2.75z" fill="#fabd7f"/><g fill="#fff" transform="translate(0 988.3622)"><path d="m6.8007812 4c-1.5512 0-2.8007812 1.2266-2.8007812 2.75v1c0-1.5234 1.2495812-2.75 2.8007812-2.75h50.3984378c1.5512 0 2.800781 1.2264 2.800781 2.75v-1c0-1.5236-1.249581-2.75-2.800781-2.75z" opacity=".1"/><path d="m6.8007812 10c-1.5512 0-2.8007812 1.2266-2.8007812 2.75v1c0-1.5234 1.2495812-2.75 2.8007812-2.75h50.3984378c1.5512 0 2.800781 1.2266 2.800781 2.75v-1c0-1.5234-1.249581-2.75-2.800781-2.75z" opacity=".2"/><path d="m6.8007812 16c-1.5511999 0-2.8007812 1.2266-2.8007812 2.75v1c0-1.5234 1.2495813-2.75 2.8007812-2.75h50.3984378c1.5512 0 2.800781 1.2266 2.800781 2.75v-1c0-1.5234-1.249581-2.75-2.800781-2.75z" opacity=".2"/></g></g></svg>

<svg xmlns="http://www.w3.org/2000/svg" width="64" height="64" version="1.1" viewBox="0 0 64 64">
 <g transform="translate(0,-988.3622)">
  <path d="m 60,1046.6122 0,-38.5 c 0,-1.5234 -1.2488,-2.75 -2.8,-2.75 l -50.4,0 c -1.5512,0 -2.8,1.2266 -2.8,2.75 l 0,38.5 c 0,1.5236 1.2488,2.75 2.8,2.75 l 50.4,0 c 1.5512,0 2.8,-1.2264 2.8,-2.75 z" style="opacity:0.2"/>
  <path d="m 60,1033.6122 0,-38.5 c 0,-1.5236 -1.2488,-2.75 -2.8,-2.75 l -50.4,0 c -1.5512,0 -2.8,1.2266 -2.8,2.75 l 0,38.5 c 0,1.5236 1.2488,2.75 2.8,2.75 l 50.4,0 c 1.5512,0 2.8,-1.2264 2.8,-2.75 z" style="fill:#86603b"/>
  <path style="fill:#c28a52" d="m 60,1039.6122 0,-38.5 c 0,-1.5234 -1.2488,-2.75 -2.8,-2.75 l -50.4,0 c -1.5512,0 -2.8,1.2266 -2.8,2.75 l 0,38.5 c 0,1.5234 1.2488,2.75 2.8,2.75 l 50.4,0 c 1.5512,0 2.8,-1.2264 2.8,-2.75 z"/>
  <path style="fill:#fabd7f" d="m 60,1045.6122 0,-38.5 c 0,-1.5234 -1.2488,-2.75 -2.8,-2.75 l -50.4,0 c -1.5512,0 -2.8,1.2266 -2.8,2.75 l 0,38.5 c 0,1.5236 1.2488,2.75 2.8,2.75 l 50.4,0 c 1.5512,0 2.8,-1.2264 2.8,-2.75 z"/>
  <path style="opacity:0.1;fill:#ffffff" d="M 6.8007812 4 C 5.2495812 4 4 5.2266 4 6.75 L 4 7.75 C 4 6.2266 5.2495812 5 6.8007812 5 L 57.199219 5 C 58.750419 5 60 6.2264 60 7.75 L 60 6.75 C 60 5.2264 58.750419 4 57.199219 4 L 6.8007812 4 z" transform="translate(0,988.3622)"/>
  <path style="opacity:0.2;fill:#ffffff" d="M 6.8007812 10 C 5.2495812 10 4 11.2266 4 12.75 L 4 13.75 C 4 12.2266 5.2495812 11 6.8007812 11 L 57.199219 11 C 58.750419 11 60 12.2266 60 13.75 L 60 12.75 C 60 11.2266 58.750419 10 57.199219 10 L 6.8007812 10 z" transform="translate(0,988.3622)"/>
  <path style="opacity:0.2;fill:#ffffff" d="M 6.8007812 16 C 5.2495813 16 4 17.2266 4 18.75 L 4 19.75 C 4 18.2266 5.2495813 17 6.8007812 17 L 57.199219 17 C 58.750419 17 60 18.2266 60 19.75 L 60 18.75 C 60 17.2266 58.750419 16 57.199219 16 L 6.8007812 16 z" transform="translate(0,988.3622)"/>
 </g>
</svg>
